X:4648
T:no name
O:england
M:C|
L:1/8
R:hornpipe
K:G
ge|dGBd ecge|dBGB dGBd|~c3A ~B3G|AGFE D2ge|
dGBd ecge|dBGB dgfg|(3efg cg fdfa|(3gag fa g2:|
|:ga|(3bag (3agf gBfB|gBfB ed^cd|efga (3bag (3agf|(3gfe (3fed efga| bg
(3agf gBfB|gBfB ed^cd|egcg (3fga df|gagf g2:|


